;FLAVOR:Marlin
;TIME:2989
;Filament used: 2.13659m
;Layer height: 0.2
;MINX:67.029
;MINY:70.178
;MINZ:0.2
;MAXX:167.786
;MAXY:164.634
;MAXZ:8
;Generated with Cura_SteamEngine 4.1.0
M140 S60
M105
M190 S60
M104 S200
M105
M109 S200
M82 ;absolute extrusion mode
; Ender 3 Custom Start G-code
G28 ; Home all axes
G92 E0 ; Reset Extruder
G1 Z2.0 F3000 ; Move Z Axis up little to prevent scratching of Heat Bed
G1 X0.1 Y20 Z0.3 F5000.0 ; Move to start position
G1 X0.1 Y200.0 Z0.3 F1500.0 E15 ; Draw the first line
G1 X0.4 Y200.0 Z0.3 F5000.0 ; Move to side a little
G1 X0.4 Y20 Z0.3 F1500.0 E30 ; Draw the second line
G92 E0 ; Reset Extruder
G1 Z2.0 F3000 ; Move Z Axis up little to prevent scratching of Heat Bed
; End of custom start GCode
G92 E0
G92 E0
G1 F2400 E-5
;LAYER_COUNT:40
;LAYER:0
M107
M204 S500
M205 X10 Y10
;MESH:Overhang_Flower.stl
G0 F3600 X105.767 Y97.365 Z0.2
;TYPE:WALL-OUTER
G1 F2400 E0
G1 F1800 X105.209 Y97.596 E0.02009
G1 X104.234 Y95.245 E0.10474
G1 X104.158 Y95.061 E0.11136
G1 X104.342 Y94.985 E0.11564
G1 X104.9 Y94.754 E0.13573
G1 X105.875 Y97.105 E0.22038
G1 X105.951 Y97.289 E0.227
G1 X105.767 Y97.365 E0.23129
G0 F3600 X105.582 Y97.441
G0 X105.428 Y97.072
G1 F2400 E-4.76871
G0 F3600 X107.094 Y102.603
G0 X104.166 Y106.167
G0 X92.99 Y119.782
G0 X95.538 Y113.751
G0 X95.749 Y114.226
G1 F2400 E0.23129
G1 F1800 X95.852 Y114.474 E0.24022
G1 X95.791 Y114.499 E0.24241
G1 X95.369 Y114.673 E0.25759
G1 X95.129 Y114.773 E0.26624
G1 X94.898 Y114.216 E0.2863
G1 X94.822 Y114.032 E0.29292
G1 X95.006 Y113.956 E0.2972
G1 X95.545 Y113.733 E0.3166
G1 X95.724 Y114.165 E0.33216
G1 X95.749 Y114.226 E0.33409
G0 F3600 X95.825 Y114.411
G0 X95.329 Y114.256
G1 F2400 E-4.66591
G0 F3600 X96.115 Y116.908
G0 X96.259 Y117.501
G1 F2400 E0.33409
G1 F1800 X96.028 Y116.944 E0.35415
G1 X98.379 Y115.969 E0.4388
G1 X98.563 Y115.893 E0.44542
G1 X98.639 Y116.077 E0.4497
G1 X98.87 Y116.634 E0.46976
G1 X96.519 Y117.609 E0.55441
G1 X96.335 Y117.685 E0.56103
G1 X96.259 Y117.501 E0.56532
G0 F3600 X96.183 Y117.317
G0 X96.552 Y117.162
G1 F2400 E-4.43468
G0 F3600 X98.852 Y116.627
G0 X103.553 Y124.109
G0 X104.021 Y124.78
G0 X104.112 Y124.817
G1 F2400 E0.56532
G1 F1800 X104.086 Y124.881 E0.56762
G1 X103.986 Y125.122 E0.57629
G1 X103.922 Y125.096 E0.57859
G1 X103.246 Y124.815 E0.60294
G1 X103.47 Y124.275 E0.62239
G1 X103.546 Y124.091 E0.62901
G1 X103.731 Y124.167 E0.63566
G1 X104.04 Y124.296 E0.6468
G1 X104.286 Y124.398 E0.65565
G1 X104.112 Y124.817 E0.67074
G0 F3600 X104.086 Y124.881
G0 X104.036 Y125.002
G0 X103.77 Y124.6
G1 F2400 E-4.32926
G0 F3600 X105.926 Y130.302
G0 X115.614 Y118.18
G0 X117.764 Y123.639
G0 X119.319 Y125.844
G0 X119.355 Y125.937
G1 F2400 E0.67074
G1 F1800 X118.797 Y126.168 E0.69083
G1 X117.822 Y123.816 E0.77551
G1 X117.746 Y123.632 E0.78213
G1 X117.93 Y123.556 E0.78642
G1 X118.488 Y123.325 E0.8065
G1 X119.463 Y125.677 E0.89119
G1 X119.539 Y125.861 E0.89781
G1 X119.355 Y125.937 E0.90209
G0 F3600 X119.17 Y126.013
G0 X119.016 Y125.644
G1 F2400 E-4.09791
G0 F3600 X118.481 Y123.343
G0 X116.414 Y117.818
G0 X119.739 Y106.008
G0 X125.059 Y104.019
G0 X124.976 Y103.853
G1 F2400 E0.90209
G1 F1800 X124.745 Y103.295 E0.92218
G1 X127.096 Y102.32 E1.00683
G1 X127.28 Y102.244 E1.01345
G1 X127.356 Y102.428 E1.01774
G1 X127.587 Y102.986 E1.03782
G1 X125.236 Y103.961 E1.12248
G1 X125.052 Y104.037 E1.1291
G1 X124.976 Y103.853 E1.13338
G0 F3600 X124.9 Y103.668
G0 X125.269 Y103.514
G1 F2400 E-3.86662
G0 F3600 X125.493 Y105.068
G0 X123.794 Y105.487
G0 X123.883 Y105.45
;TYPE:WALL-INNER
G1 F2400 E1.13338
G1 F1800 X124.606 Y107.196 E1.19624
G1 X124.609 Y107.2 E1.1964
G1 X125.272 Y108.804 E1.25413
G1 X125.348 Y108.988 E1.26075
G1 X125.532 Y108.912 E1.26503
G1 X129.027 Y107.464 E1.39086
G1 X128.287 Y105.673 E1.45531
G1 X130.137 Y104.907 E1.52191
G1 X129.414 Y103.16 E1.5848
G1 X128.257 Y100.38 E1.68495
G1 X128.203 Y100.25 E1.68963
G1 X128.167 Y100.264 E1.69091
G1 X125.196 Y101.494 E1.79786
G1 X122.861 Y102.463 E1.88195
G1 X122.677 Y102.539 E1.88857
G1 X122.753 Y102.723 E1.89285
G1 X123.886 Y105.449 E1.99104
G1 X123.883 Y105.45 E1.99114
G0 F3600 X123.794 Y105.487
G0 X122.641 Y102.524
G0 X122.105 Y96.827
G0 X122.014 Y96.865
G1 F1800 X121.83 Y96.789 E1.99777
G1 X120.224 Y96.124 E2.05558
G1 X120.99 Y94.273 E2.12221
G1 X116.332 Y92.344 E2.28989
G1 X115.076 Y95.373 E2.39896
G1 X114.04 Y97.873 E2.48896
G1 X118.699 Y99.805 E2.65672
G1 X118.701 Y99.805 E2.65678
G1 X120.49 Y100.544 E2.72116
G1 X121.938 Y97.049 E2.84699
G1 X122.014 Y96.865 E2.85127
G0 F3600 X122.105 Y96.827
G0 X121.026 Y94.259
G0 X119.612 Y93.673
G0 X117.209 Y99.216
G0 X107.399 Y98.547
G0 X107.363 Y98.458
G1 F1800 X110.901 Y96.992 E2.97865
G1 X108.688 Y91.646 E3.17109
G1 X108.612 Y91.462 E3.17771
G1 X108.428 Y91.538 E3.18199
G1 X105.764 Y92.641 E3.27789
G1 X102.757 Y93.887 E3.38615
G1 X102.165 Y94.144 E3.40762
G1 X104.376 Y99.48 E3.59973
G1 X104.452 Y99.664 E3.60635
G1 X104.636 Y99.588 E3.61063
G1 X107.362 Y98.455 E3.70882
G1 X107.363 Y98.458 E3.70892
G0 F3600 X107.399 Y98.547
G0 X101.394 Y104.801
G0 X95.777 Y102.581
G0 X94.394 Y105.808
G0 X94.485 Y105.77
G1 F1800 X94.669 Y105.846 E3.71555
G1 X99.83 Y107.986 E3.90137
G1 X100.014 Y108.062 E3.90799
G1 X100.09 Y107.878 E3.91228
G1 X102.686 Y101.612 E4.13786
G1 X97.341 Y99.396 E4.33031
G1 X97.157 Y99.32 E4.33693
G1 X97.081 Y99.504 E4.34122
G1 X95.977 Y102.169 E4.43716
G1 X94.771 Y105.081 E4.54199
G1 X94.561 Y105.586 E4.56018
G1 X94.485 Y105.77 E4.56447
G0 F3600 X94.394 Y105.808
G0 X98.278 Y110.908
G0 X99.82 Y114.443
G0 X99.732 Y114.479
G1 F1800 X98.263 Y110.944 E4.69179
G1 X93.538 Y112.899 E4.86186
G1 X92.736 Y113.232 E4.89075
G1 X93.955 Y116.174 E4.99666
G1 X93.968 Y116.203 E4.99772
G1 X95.161 Y119.086 E5.1015
G1 X95.287 Y119.375 E5.11198
G1 X95.395 Y119.625 E5.12104
G1 X95.418 Y119.678 E5.12296
G1 X95.535 Y119.63 E5.12717
G1 X100.754 Y117.467 E5.31507
G1 X100.938 Y117.391 E5.32169
G1 X100.862 Y117.207 E5.32598
G1 X99.728 Y114.48 E5.42421
G1 X99.732 Y114.479 E5.42434
G0 F3600 X99.82 Y114.443
G0 X103.372 Y117.193
G0 X103.47 Y117.178
G1 F1800 X103.742 Y117.302 E5.43428
G1 X111.038 Y120.628 E5.70098
G1 X111.028 Y120.885 E5.70953
G1 X111.027 Y120.886 E5.70958
G1 X111.018 Y121.184 E5.71949
G1 X111.298 Y121.08 E5.7253
G1 X118.852 Y118.256 E5.99353
G1 X119.054 Y118.472 E6.00337
G1 X119.258 Y118.689 E6.01327
G1 X119.381 Y118.418 E6.01906
G1 X123.171 Y110.107 E6.32287
G1 X123.294 Y109.836 E6.33277
G1 X122.997 Y109.826 E6.33854
G1 X122.996 Y109.825 E6.33859
G1 X122.508 Y109.806 E6.35483
G1 X119.859 Y102.72 E6.60644
G1 X116.13 Y101.001 E6.74301
G1 X112.385 Y99.296 E6.87987
G1 X108.66 Y100.669 E7.01192
G1 X104.665 Y102.162 E7.15377
G1 X102.935 Y105.902 E7.29082
G1 X101.484 Y109.084 E7.40714
G1 X101.264 Y109.084 E7.41446
G1 X101.262 Y109.084 E7.41452
G1 X100.976 Y109.084 E7.42404
G1 X101.076 Y109.353 E7.42966
G1 X103.864 Y116.812 E7.69451
G1 X103.689 Y116.975 E7.70246
G1 X103.47 Y117.178 E7.70826
G0 F3600 X103.372 Y117.193
G0 X101.115 Y125.761
G0 X101.206 Y125.723
G1 F1800 X101.39 Y125.799 E7.71488
G1 X104.137 Y126.936 E7.81376
G1 X104.74 Y127.199 E7.83564
G1 X104.745 Y127.188 E7.83604
G1 X107.471 Y128.319 E7.9342
G1 X107.655 Y128.395 E7.94082
G1 X107.731 Y128.211 E7.94511
G1 X109.945 Y122.864 E8.13759
G1 X103.683 Y120.265 E8.36309
G1 X103.499 Y120.189 E8.36972
G1 X103.423 Y120.373 E8.374
G1 X101.538 Y124.921 E8.53774
G1 X101.282 Y125.539 E8.55999
G1 X101.206 Y125.723 E8.56428
G0 F3600 X101.115 Y125.761
G0 X107.67 Y128.43
G0 X116.863 Y128.752
G0 X121.626 Y126.822
G0 X121.535 Y126.784
G1 F1800 X121.501 Y126.702 E8.56723
G1 X119.244 Y121.257 E8.76327
G1 X112.797 Y123.928 E8.99538
G1 X113.491 Y125.611 E9.05592
G1 X113.567 Y125.795 E9.06255
G1 X113.751 Y125.719 E9.06683
G1 X115.359 Y125.054 E9.12471
G1 X116.802 Y128.533 E9.24998
G1 X116.878 Y128.717 E9.2566
G1 X117.062 Y128.641 E9.26088
G1 X121.315 Y126.875 E9.41405
G1 X121.535 Y126.784 E9.42197
G0 F3600 X121.626 Y126.822
G0 X129.115 Y119.393
G0 X129.077 Y119.302
G1 F1800 X130.627 Y115.558 E9.55674
G1 X130.634 Y115.541 E9.55735
G1 X130.839 Y115.047 E9.57514
G1 X130.942 Y114.8 E9.58404
G1 X130.937 Y115.086 E9.58571
G1 X130.993 Y115.689 E9.59878
G1 X130.996 Y115.707 E9.59938
G1 X131.117 Y116.292 E9.61925
G1 X131.3 Y116.852 E9.63884
G1 X131.576 Y117.456 E9.66093
G1 X131.885 Y117.963 E9.68068
G1 X132.267 Y118.458 E9.70147
G1 X132.728 Y118.93 E9.72342
G1 X133.181 Y119.297 E9.74281
G1 X133.718 Y119.642 E9.76404
G1 X134.234 Y119.895 E9.78315
G1 X134.689 Y120.109 E9.79988
G1 X135.068 Y120.34 E9.81464
G1 X135.468 Y120.651 E9.83149
G1 X135.82 Y120.995 E9.84786
G1 X136.095 Y121.333 E9.86235
G1 X136.374 Y121.766 E9.87949
G1 X136.574 Y122.169 E9.89445
G1 X136.74 Y122.631 E9.91078
G1 X136.854 Y123.103 E9.92693
G1 X136.906 Y123.523 E9.941
G1 X136.916 Y124.012 E9.95727
G1 X136.864 Y124.526 E9.97445
G1 X136.772 Y124.95 E9.98888
G1 X136.603 Y125.453 E10.00653
G1 X136.422 Y125.84 E10.02074
G1 X136.166 Y126.258 E10.03705
G1 X135.883 Y126.625 E10.05246
G1 X135.545 Y126.975 E10.06864
G1 X135.189 Y127.266 E10.08394
G1 X134.753 Y127.548 E10.10121
G1 X134.36 Y127.743 E10.1158
G1 X133.896 Y127.912 E10.13222
G1 X133.441 Y128.023 E10.1478
G1 X132.976 Y128.082 E10.16339
G1 X132.506 Y128.09 E10.17902
G1 X132.007 Y128.041 E10.1957
G1 X131.565 Y127.946 E10.21074
G1 X131.072 Y127.781 E10.22803
G1 X130.673 Y127.594 E10.24269
G1 X130.265 Y127.346 E10.25857
G1 X129.856 Y127.027 E10.27582
G1 X129.405 Y126.597 E10.29654
G1 X128.877 Y126.175 E10.31902
G1 X128.257 Y125.797 E10.34318
G1 X127.63 Y125.522 E10.36595
G1 X126.933 Y125.318 E10.3901
G1 X126.182 Y125.206 E10.41536
G1 X125.48 Y125.198 E10.43871
G1 X124.759 Y125.283 E10.46285
G1 X124.059 Y125.463 E10.48689
G1 X123.405 Y125.728 E10.51036
G1 X122.773 Y126.086 E10.53452
G1 X122.241 Y126.485 E10.55664
G1 X121.829 Y126.88 E10.57562
G1 X121.765 Y126.941 E10.57856
G1 X121.752 Y126.958 E10.57917
G1 X121.602 Y127.144 E10.58594
G1 X121.322 Y127.491 E10.60077
G1 X120.933 Y128.132 E10.62571
G1 X120.654 Y128.773 E10.64896
G1 X120.452 Y129.476 E10.67329
G1 X120.347 Y130.197 E10.69752
G1 X120.341 Y130.952 E10.72263
G1 X120.426 Y131.633 E10.74546
G1 X120.598 Y132.3 E10.76837
G1 X120.818 Y132.888 E10.78925
G1 X120.975 Y133.452 E10.80872
G1 X121.05 Y133.974 E10.82626
G1 X121.058 Y134.554 E10.84555
G1 X120.993 Y135.093 E10.86361
G1 X120.855 Y135.629 E10.88202
G1 X120.65 Y136.141 E10.90036
G1 X120.386 Y136.61 E10.91826
G1 X120.058 Y137.052 E10.93657
G1 X119.666 Y137.455 E10.95527
G1 X119.211 Y137.814 E10.97455
G1 X118.756 Y138.082 E10.99211
G1 X118.191 Y138.319 E11.01249
G1 X117.685 Y138.457 E11.02993
G1 X117.18 Y138.527 E11.04689
G1 X116.625 Y138.536 E11.06535
G1 X116.076 Y138.472 E11.08373
G1 X115.477 Y138.317 E11.10431
G1 X114.994 Y138.119 E11.12168
G1 X114.522 Y137.849 E11.13976
G1 X114.092 Y137.528 E11.15761
G1 X113.705 Y137.153 E11.17553
G1 X113.36 Y136.715 E11.19408
G1 X113.076 Y136.241 E11.21246
G1 X112.851 Y135.717 E11.23142
G1 X112.696 Y135.158 E11.25072
G1 X112.623 Y134.639 E11.26815
G1 X112.602 Y133.986 E11.28988
G1 X112.524 Y133.29 E11.31317
G1 X112.356 Y132.614 E11.33634
G1 X112.095 Y131.95 E11.36007
G1 X111.726 Y131.288 E11.38528
G1 X111.285 Y130.708 E11.40951
G1 X110.797 Y130.211 E11.43268
G1 X110.227 Y129.767 E11.45671
G1 X109.602 Y129.402 E11.48078
G1 X108.952 Y129.132 E11.50419
G1 X108.281 Y128.948 E11.52733
G1 X107.624 Y128.855 E11.5494
G1 X106.938 Y128.844 E11.57222
G1 X106.239 Y128.922 E11.59562
G1 X105.54 Y129.094 E11.61956
G1 X104.864 Y129.363 E11.64376
G1 X104.226 Y129.72 E11.66807
G1 X103.645 Y130.159 E11.69229
G1 X103.11 Y130.692 E11.71741
G1 X102.677 Y131.258 E11.74111
G1 X102.35 Y131.825 E11.76288
G1 X102.091 Y132.392 E11.78362
G1 X101.82 Y132.873 E11.80198
G1 X101.483 Y133.319 E11.82057
G1 X101.072 Y133.736 E11.84004
G1 X100.678 Y134.041 E11.85662
G1 X100.194 Y134.328 E11.87533
G1 X99.688 Y134.544 E11.89363
G1 X99.177 Y134.689 E11.9113
G1 X98.628 Y134.768 E11.92975
G1 X98.079 Y134.778 E11.94801
G1 X97.495 Y134.707 E11.96758
G1 X96.983 Y134.575 E11.98516
G1 X96.465 Y134.367 E12.00373
G1 X95.974 Y134.09 E12.02248
G1 X95.556 Y133.774 E12.03991
G1 X95.167 Y133.397 E12.05792
G1 X94.803 Y132.935 E12.07749
G1 X94.533 Y132.479 E12.09511
G1 X94.307 Y131.947 E12.11434
G1 X94.155 Y131.385 E12.1337
G1 X94.09 Y130.902 E12.14991
G1 X94.082 Y130.357 E12.16804
G1 X94.15 Y129.782 E12.1873
G1 X94.289 Y129.244 E12.20578
G1 X94.497 Y128.731 E12.22419
G1 X94.79 Y128.22 E12.24378
G1 X95.111 Y127.801 E12.26134
G1 X95.528 Y127.358 E12.28157
G1 X95.962 Y126.812 E12.30477
G1 X96.32 Y126.215 E12.32792
G1 X96.615 Y125.538 E12.35248
G1 X96.803 Y124.866 E12.37569
G1 X96.911 Y124.121 E12.40073
G1 X96.914 Y123.418 E12.42411
G1 X96.825 Y122.702 E12.44811
G1 X96.64 Y122.004 E12.47213
G1 X96.363 Y121.333 E12.49627
G1 X96.026 Y120.751 E12.51864
G1 X95.63 Y120.223 E12.54059
G1 X95.343 Y119.927 E12.55431
G1 X95.255 Y119.836 E12.55776
G1 X95.153 Y119.731 E12.56134
G1 X94.94 Y119.561 E12.5689
G1 X94.603 Y119.292 E12.58325
G1 X93.964 Y118.909 E12.60802
G1 X93.318 Y118.634 E12.63138
G1 X92.618 Y118.439 E12.65554
G1 X91.899 Y118.338 E12.67969
G1 X91.15 Y118.336 E12.70461
G1 X90.469 Y118.426 E12.72745
G1 X89.808 Y118.6 E12.75019
G1 X89.236 Y118.816 E12.77052
G1 X88.687 Y118.968 E12.78947
G1 X88.146 Y119.044 E12.80764
G1 X87.564 Y119.047 E12.827
G1 X87.014 Y118.976 E12.84544
G1 X86.517 Y118.844 E12.86255
G1 X85.971 Y118.621 E12.88216
G1 X85.544 Y118.377 E12.89852
G1 X85.098 Y118.044 E12.91703
G1 X84.711 Y117.668 E12.93498
G1 X84.35 Y117.207 E12.95445
G1 X84.08 Y116.749 E12.97214
G1 X83.864 Y116.241 E12.9905
G1 X83.711 Y115.684 E13.00971
G1 X83.641 Y115.182 E13.02657
G1 X83.634 Y114.61 E13.04559
G1 X83.698 Y114.083 E13.06325
G1 X83.839 Y113.534 E13.0821
G1 X84.053 Y113.004 E13.10111
G1 X84.314 Y112.547 E13.11862
G1 X84.644 Y112.107 E13.13691
G1 X85.015 Y111.727 E13.15457
G1 X85.455 Y111.38 E13.17321
G1 X85.947 Y111.089 E13.19222
G1 X86.459 Y110.872 E13.21072
G1 X87.012 Y110.722 E13.22978
G1 X87.546 Y110.651 E13.24769
G1 X88.162 Y110.633 E13.26819
G1 X88.832 Y110.553 E13.29063
G1 X89.506 Y110.387 E13.31372
G1 X90.168 Y110.125 E13.3374
G1 X90.799 Y109.775 E13.3614
G1 X91.403 Y109.321 E13.38653
G1 X91.901 Y108.829 E13.40981
G1 X92.344 Y108.26 E13.4338
G1 X92.707 Y107.637 E13.45778
G1 X92.977 Y106.99 E13.4811
G1 X93.163 Y106.292 E13.50512
G1 X93.254 Y105.637 E13.52712
G1 X93.261 Y104.978 E13.54904
G1 X93.183 Y104.281 E13.57237
G1 X93.01 Y103.585 E13.59622
G1 X92.741 Y102.91 E13.62039
G1 X92.385 Y102.275 E13.6446
G1 X91.948 Y101.697 E13.6687
G1 X91.418 Y101.166 E13.69365
G1 X90.875 Y100.75 E13.7164
G1 X90.285 Y100.406 E13.73912
G1 X89.724 Y100.151 E13.75962
G1 X89.21 Y99.858 E13.77929
G1 X88.798 Y99.545 E13.7965
G1 X88.386 Y99.138 E13.81577
G1 X88.045 Y98.696 E13.83433
G1 X87.782 Y98.24 E13.85184
G1 X87.561 Y97.712 E13.87088
G1 X87.425 Y97.212 E13.88811
G1 X87.352 Y96.679 E13.90601
G1 X87.346 Y96.118 E13.92467
G1 X87.419 Y95.542 E13.94398
G1 X87.553 Y95.04 E13.96126
G1 X87.765 Y94.521 E13.97991
G1 X88.035 Y94.047 E13.99805
G1 X88.362 Y93.614 E14.0161
G1 X88.757 Y93.215 E14.03477
G1 X89.181 Y92.887 E14.0526
G1 X89.659 Y92.607 E14.07102
G1 X90.197 Y92.382 E14.09042
G1 X90.703 Y92.245 E14.10786
G1 X91.236 Y92.173 E14.12574
G1 X91.777 Y92.169 E14.14374
G1 X92.324 Y92.236 E14.16207
G1 X92.865 Y92.377 E14.18066
G1 X93.373 Y92.583 E14.1989
G1 X93.88 Y92.874 E14.21834
G1 X94.296 Y93.192 E14.23575
G1 X94.782 Y93.647 E14.2579
G1 X95.353 Y94.085 E14.28183
G1 X96.013 Y94.461 E14.3071
G1 X96.737 Y94.745 E14.33296
G1 X97.508 Y94.925 E14.3593
G1 X98.322 Y94.991 E14.38646
G1 X99.087 Y94.939 E14.41196
G1 X99.856 Y94.775 E14.43811
G1 X100.578 Y94.507 E14.46373
G1 X101.263 Y94.134 E14.48967
G1 X101.846 Y93.701 E14.51382
G1 X102.364 Y93.197 E14.53786
G1 X102.834 Y92.59 E14.5634
G1 X103.22 Y91.909 E14.58943
G1 X103.515 Y91.147 E14.61661
G1 X103.683 Y90.398 E14.64214
G1 X103.744 Y89.612 E14.66836
G1 X103.686 Y88.807 E14.6952
G1 X103.53 Y88.089 E14.71964
G1 X103.292 Y87.429 E14.74298
G1 X103.114 Y86.828 E14.76383
G1 X103.028 Y86.25 E14.78326
G1 X103.024 Y85.623 E14.80412
G1 X103.11 Y85.027 E14.82414
G1 X103.274 Y84.467 E14.84355
