;FLAVOR:Marlin
;TIME:2842
;Filament used: 1.46706m
;Layer height: 0.15
;MINX:67.31
;MINY:89.369
;MINZ:0.2
;MAXX:167.315
;MAXY:144.146
;MAXZ:7.85
;Generated with Cura_SteamEngine 4.1.0
M140 S60
M105
M190 S60
M104 S200
M105
M109 S200
M82 ;absolute extrusion mode
; Ender 3 Custom Start G-code
G28 ; Home all axes
G92 E0 ; Reset Extruder
G1 Z2.0 F3000 ; Move Z Axis up little to prevent scratching of Heat Bed
G1 X0.1 Y20 Z0.3 F5000.0 ; Move to start position
G1 X0.1 Y200.0 Z0.3 F1500.0 E15 ; Draw the first line
G1 X0.4 Y200.0 Z0.3 F5000.0 ; Move to side a little
G1 X0.4 Y20 Z0.3 F1500.0 E30 ; Draw the second line
G92 E0 ; Reset Extruder
G1 Z2.0 F3000 ; Move Z Axis up little to prevent scratching of Heat Bed
; End of custom start GCode
G92 E0
G92 E0
G1 F2400 E-5
;LAYER_COUNT:52
;LAYER:0
M107
M204 S500
M205 X10 Y10
;MESH:Half_Overhang_Flower.stl
G0 F3600 X95.388 Y94.597 Z0.2
;TYPE:WALL-OUTER
G1 F2400 E0
G1 F1800 X95.147 Y94.697 E0.00868
G1 X94.84 Y93.956 E0.03536
G1 X95.379 Y93.732 E0.05477
G1 X95.563 Y93.656 E0.06139
G1 X95.639 Y93.84 E0.06567
G1 X95.767 Y94.149 E0.0768
G1 X95.87 Y94.398 E0.08576
G1 X95.388 Y94.597 E0.10311
G0 F3600 X95.203 Y94.673
G0 X95.363 Y94.174
G1 F2400 E-4.89689
G0 F3600 X96.141 Y96.849
G0 X96.277 Y97.425
G1 F2400 E0.10311
G1 F1800 X96.046 Y96.867 E0.12319
G1 X98.398 Y95.892 E0.20787
G1 X98.582 Y95.816 E0.2145
G1 X98.658 Y96 E0.21878
G1 X98.889 Y96.558 E0.23887
G1 X96.537 Y97.533 E0.32355
G1 X96.353 Y97.609 E0.33017
G1 X96.277 Y97.425 E0.33445
G0 F3600 X96.201 Y97.24
G0 X96.57 Y97.086
G1 F2400 E-4.66555
G0 F3600 X98.871 Y96.551
G0 X103.571 Y104.033
G0 X103.448 Y104.814
G1 F2400 E0.33445
G1 F1800 X103.264 Y104.738 E0.34108
G1 X103.34 Y104.554 E0.34536
G1 X103.564 Y104.015 E0.36477
G1 X104.304 Y104.322 E0.39142
G1 X104.081 Y104.861 E0.41082
G1 X104.005 Y105.045 E0.41744
G1 X103.821 Y104.969 E0.42173
G1 X103.448 Y104.814 E0.43516
G0 F3600 X103.264 Y104.738
G0 X103.679 Y104.478
G1 F2400 E-4.56484
G0 F3600 X106.159 Y110.165
G0 X113.026 Y118.175
G0 X114.108 Y118.994
G0 X115.476 Y119.554
G0 X116.937 Y119.729
G0 X118.308 Y119.535
G0 X119.659 Y118.961
G0 X120.797 Y118.062
G0 X121.646 Y116.924
G0 X122.17 Y115.629
G0 X122.542 Y107.924
G0 X118.338 Y104.887
G0 X119.338 Y105.767
G0 X119.373 Y105.86
G1 F2400 E0.43516
G1 F1800 X119.372 Y105.861 E0.43521
G1 X118.999 Y106.016 E0.44864
G1 X118.815 Y106.092 E0.45526
G1 X118.739 Y105.908 E0.45955
G1 X118.32 Y104.894 E0.49604
G1 X117.841 Y103.74 E0.5376
G1 X117.765 Y103.556 E0.54422
G1 X117.949 Y103.48 E0.5485
G1 X118.506 Y103.249 E0.56856
G1 X119.481 Y105.601 E0.65324
G1 X119.557 Y105.785 E0.65986
G1 X119.373 Y105.86 E0.66413
G0 F3600 X119.372 Y105.861
G0 X119.188 Y105.937
G0 X119.034 Y105.568
G1 F2400 E-4.33587
G0 F3600 X117.783 Y103.563
G0 X116.734 Y103.997
G0 X115.983 Y102.511
G0 X112.722 Y103.815
G0 X112.813 Y103.853
;TYPE:WALL-INNER
G1 F2400 E0.66413
G1 F1800 X112.889 Y104.037 E0.67075
G1 X113.588 Y105.718 E0.7313
G1 X115.377 Y104.978 E0.79569
G1 X116.896 Y108.641 E0.92758
G1 X121.383 Y106.782 E1.08912
G1 X121.405 Y106.773 E1.08991
G1 X121.554 Y106.711 E1.09528
G1 X119.34 Y101.365 E1.28773
G1 X119.264 Y101.181 E1.29436
G1 X119.08 Y101.257 E1.29864
G1 X116.352 Y102.387 E1.39685
G1 X112.997 Y103.777 E1.51764
G1 X112.813 Y103.853 E1.52192
G0 F3600 X112.722 Y103.815
G0 X107.688 Y108.353
G0 X104.725 Y107.202
G0 X104.761 Y107.116
G1 F1800 X104.763 Y107.111 E1.5221
G1 X107.489 Y108.242 E1.62026
G1 X107.673 Y108.318 E1.62688
G1 X107.749 Y108.134 E1.63116
G1 X109.889 Y102.973 E1.81699
G1 X109.965 Y102.789 E1.82361
G1 X109.781 Y102.713 E1.8279
G1 X103.699 Y100.193 E2.04686
G1 X103.515 Y100.117 E2.05348
G1 X103.439 Y100.301 E2.05777
G1 X101.556 Y104.849 E2.22149
G1 X101.301 Y105.462 E2.24357
G1 X101.225 Y105.646 E2.25019
G1 X101.409 Y105.722 E2.25447
G1 X104.16 Y106.863 E2.35353
G1 X104.761 Y107.116 E2.37522
G0 F3600 X104.725 Y107.202
G0 X101.19 Y105.661
G0 X103.392 Y97.116
G0 X103.49 Y97.101
G1 F1800 X103.762 Y97.225 E2.38516
G1 X111.062 Y100.553 E2.652
G1 X111.057 Y100.806 E2.66042
G1 X111.056 Y100.807 E2.66047
G1 X111.052 Y101.099 E2.67018
G1 X111.326 Y100.997 E2.67589
G1 X118.868 Y98.18 E2.94366
G1 X119.069 Y98.396 E2.95348
G1 X119.273 Y98.614 E2.96341
G1 X119.397 Y98.342 E2.96921
G1 X122.936 Y90.577 E3.25304
G1 X132.522 Y90.577 E3.57187
G1 X132.558 Y90.577 E3.57307
G1 X132.97 Y90.577 E3.58677
G1 X132.558 Y90.944 E3.59699
G1 X132.534 Y90.97 E3.59812
G1 X132.14 Y91.41 E3.61777
G1 X131.801 Y91.886 E3.6372
G1 X131.515 Y92.392 E3.65653
G1 X131.276 Y92.951 E3.67676
G1 X131.094 Y93.56 E3.6979
G1 X130.993 Y94.117 E3.71672
G1 X130.968 Y94.45 E3.72783
G1 X130.962 Y94.541 E3.73086
G1 X130.877 Y94.507 E3.73268
G1 X130.876 Y94.506 E3.73273
G1 X125.496 Y92.278 E3.9264
G1 X122.823 Y98.725 E4.15853
G1 X124.505 Y99.424 E4.21911
G1 X124.689 Y99.5 E4.22573
G1 X124.765 Y99.316 E4.23002
G1 X125.432 Y97.708 E4.28792
G1 X129.096 Y99.226 E4.41983
G1 X130.642 Y95.496 E4.55412
G1 X130.756 Y95.22 E4.56406
G1 X130.914 Y94.838 E4.5778
G1 X130.95 Y94.752 E4.58091
G1 X130.953 Y94.845 E4.58249
G1 X130.971 Y95.31 E4.59498
G1 X131.016 Y95.606 E4.60294
G1 X131.063 Y95.915 E4.61333
G1 X131.211 Y96.479 E4.63273
G1 X131.437 Y97.064 E4.65359
G1 X131.73 Y97.62 E4.67449
G1 X132.082 Y98.138 E4.69532
G1 X132.492 Y98.611 E4.71614
G1 X132.954 Y99.034 E4.73697
G1 X133.508 Y99.431 E4.75964
G1 X134.027 Y99.717 E4.77935
G1 X134.492 Y99.923 E4.79627
G1 X134.882 Y100.133 E4.811
G1 X135.27 Y100.399 E4.82665
G1 X135.664 Y100.74 E4.84398
G1 X135.968 Y101.074 E4.859
G1 X136.247 Y101.455 E4.87471
G1 X136.485 Y101.871 E4.89065
G1 X136.676 Y102.316 E4.90675
G1 X136.81 Y102.754 E4.92199
G1 X136.898 Y103.227 E4.93799
G1 X136.932 Y103.682 E4.95316
G1 X136.913 Y104.179 E4.96971
G1 X136.827 Y104.715 E4.98776
G1 X136.707 Y105.135 E5.00229
G1 X136.536 Y105.56 E5.01753
G1 X136.312 Y105.978 E5.0333
G1 X136.048 Y106.363 E5.04883
G1 X135.748 Y106.71 E5.06408
G1 X135.384 Y107.047 E5.08058
G1 X134.981 Y107.342 E5.09719
G1 X134.529 Y107.594 E5.11441
G1 X134.12 Y107.766 E5.12916
G1 X133.694 Y107.893 E5.14395
G1 X133.188 Y107.985 E5.16105
G1 X132.728 Y108.013 E5.17638
G1 X132.282 Y107.996 E5.19123
G1 X131.814 Y107.924 E5.20698
G1 X131.352 Y107.799 E5.22289
G1 X130.901 Y107.621 E5.23902
G1 X130.449 Y107.377 E5.2561
G1 X130.085 Y107.123 E5.27087
G1 X129.705 Y106.793 E5.28761
G1 X129.147 Y106.284 E5.31273
G1 X128.603 Y105.907 E5.33474
G1 X127.953 Y105.568 E5.35912
G1 X127.303 Y105.332 E5.38212
G1 X126.592 Y105.175 E5.40634
G1 X125.862 Y105.114 E5.43071
G1 X125.135 Y105.151 E5.45492
G1 X124.394 Y105.291 E5.48
G1 X123.741 Y105.508 E5.50289
G1 X123.115 Y105.81 E5.526
G1 X122.553 Y106.175 E5.54829
G1 X122.026 Y106.616 E5.57115
G1 X121.763 Y106.902 E5.58407
G1 X121.554 Y107.13 E5.5931
G1 X121.541 Y107.149 E5.59386
G1 X121.143 Y107.714 E5.61684
G1 X120.794 Y108.384 E5.64197
G1 X120.549 Y109.074 E5.66632
G1 X120.396 Y109.821 E5.69168
G1 X120.349 Y110.483 E5.71376
G1 X120.388 Y111.204 E5.73777
G1 X120.521 Y111.897 E5.76124
G1 X120.738 Y112.554 E5.78426
G1 X120.92 Y113.081 E5.8028
G1 X121.038 Y113.625 E5.82131
G1 X121.082 Y114.2 E5.84049
G1 X121.047 Y114.793 E5.86025
G1 X120.947 Y115.299 E5.87741
G1 X120.777 Y115.813 E5.89541
G1 X120.541 Y116.304 E5.91353
G1 X120.243 Y116.764 E5.93176
G1 X119.89 Y117.178 E5.94986
G1 X119.479 Y117.55 E5.9683
G1 X119.011 Y117.872 E5.98719
G1 X118.489 Y118.135 E6.00663
G1 X117.979 Y118.311 E6.02458
G1 X117.457 Y118.42 E6.04231
G1 X116.918 Y118.463 E6.0603
G1 X116.372 Y118.436 E6.07848
G1 X115.787 Y118.326 E6.09828
G1 X115.289 Y118.162 E6.11571
G1 X114.733 Y117.892 E6.13627
G1 X114.325 Y117.622 E6.15254
G1 X113.912 Y117.269 E6.17062
G1 X113.542 Y116.858 E6.18901
G1 X113.214 Y116.381 E6.20826
G1 X112.964 Y115.883 E6.2268
G1 X112.786 Y115.377 E6.24464
G1 X112.664 Y114.782 E6.26484
G1 X112.628 Y114.251 E6.28254
G1 X112.592 Y113.549 E6.30592
G1 X112.469 Y112.873 E6.32877
G1 X112.255 Y112.2 E6.35226
G1 X111.933 Y111.524 E6.37716
G1 X111.555 Y110.939 E6.40033
G1 X111.079 Y110.384 E6.42465
G1 X110.537 Y109.901 E6.4488
G1 X109.909 Y109.479 E6.47396
G1 X109.295 Y109.178 E6.4967
G1 X108.615 Y108.945 E6.52061
G1 X108.015 Y108.82 E6.541
G1 X107.303 Y108.761 E6.56476
G1 X106.609 Y108.794 E6.58787
G1 X105.906 Y108.918 E6.61161
G1 X105.215 Y109.141 E6.63576
G1 X104.53 Y109.469 E6.66102
G1 X103.946 Y109.853 E6.68427
G1 X103.399 Y110.325 E6.7083
G1 X102.921 Y110.866 E6.73231
G1 X102.528 Y111.45 E6.75572
G1 X101.968 Y112.585 E6.79782
G1 X101.675 Y113.027 E6.81545
G1 X101.315 Y113.446 E6.83383
G1 X100.899 Y113.817 E6.85237
G1 X100.437 Y114.129 E6.87091
G1 X99.917 Y114.388 E6.89023
G1 X99.459 Y114.545 E6.90633
G1 X98.92 Y114.661 E6.92467
G1 X98.346 Y114.706 E6.94382
G1 X97.822 Y114.678 E6.96127
G1 X97.269 Y114.574 E6.97999
G1 X96.713 Y114.391 E6.99946
G1 X96.246 Y114.166 E7.0167
G1 X95.789 Y113.868 E7.03485
G1 X95.379 Y113.518 E7.05277
G1 X94.986 Y113.083 E7.07227
G1 X94.675 Y112.624 E7.09071
G1 X94.436 Y112.152 E7.10831
G1 X94.253 Y111.63 E7.12671
G1 X94.138 Y111.081 E7.14536
G1 X94.095 Y110.526 E7.16388
G1 X94.124 Y110.004 E7.18127
G1 X94.223 Y109.463 E7.19956
G1 X94.416 Y108.88 E7.21999
G1 X94.649 Y108.404 E7.23761
G1 X94.955 Y107.94 E7.2561
G1 X95.332 Y107.506 E7.27522
G1 X95.779 Y107.007 E7.2975
G1 X96.168 Y106.445 E7.32023
G1 X96.493 Y105.819 E7.34369
G1 X96.735 Y105.142 E7.36761
G1 X96.89 Y104.405 E7.39266
G1 X96.943 Y103.677 E7.41693
G1 X96.901 Y102.979 E7.44019
G1 X96.756 Y102.245 E7.46508
G1 X96.534 Y101.597 E7.48786
G1 X96.232 Y100.976 E7.51083
G1 X95.879 Y100.435 E7.53231
G1 X95.469 Y99.951 E7.55341
G1 X95.42 Y99.894 E7.55591
G1 X95.281 Y99.768 E7.56215
G1 X94.983 Y99.497 E7.57554
G1 X94.905 Y99.427 E7.57903
G1 X94.3 Y99.008 E7.60351
G1 X93.677 Y98.691 E7.62676
G1 X92.967 Y98.44 E7.6518
G1 X92.278 Y98.298 E7.6752
G1 X91.558 Y98.247 E7.69921
G1 X90.838 Y98.291 E7.7232
G1 X90.125 Y98.433 E7.74738
G1 X88.979 Y98.824 E7.78765
G1 X88.432 Y98.938 E7.80624
G1 X87.888 Y98.979 E7.82438
G1 X87.328 Y98.946 E7.84304
G1 X86.788 Y98.841 E7.86134
G1 X86.278 Y98.672 E7.87921
G1 X85.786 Y98.436 E7.89736
G1 X85.337 Y98.142 E7.91521
G1 X84.921 Y97.788 E7.93338
G1 X84.549 Y97.374 E7.95189
G1 X84.234 Y96.914 E7.97043
G1 X83.974 Y96.398 E7.98965
G1 X83.802 Y95.903 E8.00708
G1 X83.69 Y95.363 E8.02542
G1 X83.648 Y94.83 E8.0432
G1 X83.68 Y94.252 E8.06246
G1 X83.781 Y93.719 E8.0805
G1 X83.955 Y93.194 E8.0989
G1 X84.191 Y92.704 E8.11699
G1 X84.491 Y92.245 E8.13522
G1 X84.858 Y91.819 E8.15392
G1 X85.246 Y91.472 E8.17124
G1 X85.723 Y91.145 E8.19047
G1 X86.241 Y90.887 E8.20972
G1 X86.74 Y90.716 E8.22726
G1 X87.301 Y90.603 E8.2463
G1 X87.818 Y90.577 E8.26352
G1 X98.005 Y90.577 E8.60234
G1 X98.284 Y90.577 E8.61162
G1 X98.367 Y90.577 E8.61438
G1 X101.582 Y90.577 E8.72131
G1 X103.884 Y96.735 E8.93997
G1 X103.709 Y96.898 E8.94792
G1 X103.49 Y97.101 E8.95371
G0 F3600 X103.392 Y97.116
G0 X98.322 Y90.775
G0 X98.284 Y90.866
G1 F1800 X98.027 Y90.972 E8.9617
G1 X95.276 Y92.112 E9.06074
G1 X92.755 Y93.156 E9.1515
G1 X93.972 Y96.095 E9.2573
G1 X94.048 Y96.277 E9.26386
G1 X95.274 Y99.233 E9.37029
G1 X95.428 Y99.605 E9.38073
G1 X95.498 Y99.576 E9.38325
G1 X100.772 Y97.391 E9.57312
G1 X100.956 Y97.315 E9.57974
G1 X100.88 Y97.131 E9.58403
G1 X98.315 Y90.942 E9.80685
G1 X98.284 Y90.866 E9.80926
G0 F3600 X98.322 Y90.775
G0 X99.626 Y94.035
G0 X99.227 Y94.187
;TYPE:WALL-OUTER
G1 F1800 X99.151 Y94.003 E9.81589
G1 X98.068 Y91.389 E9.90999
G1 X95.429 Y92.482 E10.005
G1 X93.278 Y93.373 E10.08244
G1 X94.341 Y95.941 E10.17488
G1 X94.437 Y96.171 E10.18317
G1 X94.865 Y95.994 E10.19857
G1 X97.377 Y94.953 E10.28901
G1 X96.729 Y93.388 E10.34535
G1 X96.653 Y93.204 E10.35197
G1 X96.837 Y93.128 E10.35625
G1 X97.376 Y92.905 E10.37565
G1 X98.048 Y94.525 E10.43399
G1 X98.101 Y94.653 E10.43859
G1 X99.043 Y94.263 E10.4725
G1 X99.227 Y94.187 E10.47679
G0 F3600 X99.151 Y94.003
G0 X99.26 Y94.265
G0 X100.895 Y96.909
G0 X100.433 Y97.099
G1 F1800 X99.274 Y94.301 E10.57752
G1 X98.147 Y94.767 E10.61808
G1 X98.019 Y94.82 E10.62269
G1 X97.424 Y95.066 E10.6441
G1 X94.913 Y96.106 E10.67155
G1 X94.484 Y96.285 E10.67626
G1 X95.547 Y98.853 E10.76871
G1 X95.643 Y99.083 E10.77699
G1 X100.433 Y97.099 E10.94944
G0 F3600 X100.357 Y96.915
G0 X100.819 Y96.725
G0 X102.446 Y102.605
G0 X101.19 Y105.661
G0 X104.394 Y106.989
G0 X105.351 Y104.814
G0 X105.424 Y104.786
G1 F1800 X107.216 Y105.528 E11.01395
G1 X106.993 Y106.067 E11.03335
G1 X106.917 Y106.251 E11.03997
G1 X106.733 Y106.175 E11.04425
G1 X105.126 Y105.51 E11.1021
G1 X104.66 Y106.636 E11.14263
G1 X107.457 Y107.795 E11.24333
G1 X108.601 Y105.039 E11.34258
G1 X108.677 Y104.855 E11.3492
G1 X108.493 Y104.779 E11.35348
G1 X107.111 Y104.207 E11.40323
G1 X106.927 Y104.131 E11.40985
G1 X107.003 Y103.947 E11.41413
G1 X107.227 Y103.408 E11.43355
G1 X108.975 Y104.131 E11.49646
G1 X109.366 Y103.189 E11.53039
G1 X109.442 Y103.005 E11.53701
G1 X109.258 Y102.929 E11.54129
G1 X106.644 Y101.846 E11.6354
G1 X106.178 Y102.972 E11.67593
G1 X105.878 Y103.697 E11.70203
G1 X105.563 Y104.458 E11.72942
G1 X105.424 Y104.786 E11.74127
G0 F3600 X105.608 Y104.862
G0 X105.575 Y104.939
G0 X104.622 Y106.625
G0 X104.545 Y106.591
G1 F1800 X105.011 Y105.463 E11.75385
G1 X105.311 Y104.74 E11.77988
G1 X105.447 Y104.41 E11.78354
G1 X105.763 Y103.649 E11.79208
G1 X104.199 Y103.001 E11.84839
G1 X104.015 Y102.925 E11.85501
G1 X104.091 Y102.741 E11.85929
G1 X104.315 Y102.201 E11.87874
G1 X106.063 Y102.925 E11.94166
G1 X106.454 Y101.983 E11.97559
G1 X106.53 Y101.799 E11.98221
G1 X106.346 Y101.723 E11.98649
G1 X103.916 Y100.716 E12.07398
G1 X103.732 Y100.64 E12.0806
G1 X103.656 Y100.824 E12.08488
G1 X101.926 Y105.002 E12.23529
G1 X101.824 Y105.246 E12.24408
G1 X101.748 Y105.43 E12.2507
G1 X101.932 Y105.506 E12.25499
G1 X104.315 Y106.494 E12.34079
G1 X104.545 Y106.591 E12.34909
G0 F3600 X104.621 Y106.407
G0 X104.699 Y106.44
G0 X107.688 Y108.353
G0 X112.778 Y103.838
G0 X115.983 Y102.511
G0 X116.135 Y102.91
G1 F1800 X113.52 Y103.993 E12.44323
G1 X113.336 Y104.069 E12.44985
G1 X113.412 Y104.253 E12.45414
G1 X113.804 Y105.196 E12.4881
G1 X115.593 Y104.455 E12.55251
G1 X117.112 Y108.118 E12.6844
G1 X118.119 Y107.701 E12.72065
G1 X117.228 Y105.549 E12.79812
G1 X116.163 Y102.978 E12.89068
G1 X116.135 Y102.91 E12.89312
G0 F3600 X115.951 Y102.986
G0 X116.213 Y102.878
G0 X118.857 Y101.242
G0 X119.047 Y101.704
G1 F1800 X116.548 Y102.739 E12.98309
G1 X116.479 Y102.767 E12.98556
G1 X116.249 Y102.863 E12.99385
G1 X116.277 Y102.932 E12.99547
G1 X117.342 Y105.502 E13.05595
G1 X118.157 Y107.47 E13.1268
G1 X118.233 Y107.654 E13.13342
G1 X118.417 Y107.578 E13.1377
G1 X121.031 Y106.495 E13.23181
G1 X119.047 Y101.704 E13.40428
G0 F3600 X118.863 Y101.78
G0 X118.673 Y101.319
G0 X121.589 Y106.726
G0 X120.446 Y109.081
G0 X120.935 Y109.182
G1 F1800 X120.793 Y109.875 E13.42781
G1 X120.75 Y110.486 E13.44818
G1 X120.786 Y111.155 E13.47047
G1 X120.909 Y111.796 E13.49217
G1 X121.117 Y112.426 E13.51424
G1 X121.306 Y112.972 E13.53346
G1 X121.435 Y113.569 E13.55377
G1 X121.483 Y114.193 E13.57459
G1 X121.444 Y114.842 E13.59621
G1 X121.333 Y115.407 E13.61536
G1 X121.149 Y115.963 E13.63484
G1 X120.892 Y116.498 E13.65458
G1 X120.567 Y117 E13.67447
G1 X120.174 Y117.461 E13.69462
G1 X119.725 Y117.867 E13.71476
G1 X119.22 Y118.214 E13.73514
G1 X118.646 Y118.504 E13.75652
G1 X118.08 Y118.699 E13.77644
G1 X117.516 Y118.817 E13.7956
G1 X116.93 Y118.864 E13.81515
G1 X116.322 Y118.833 E13.8354
G1 X115.686 Y118.714 E13.85692
G1 X115.137 Y118.533 E13.87615
G1 X114.538 Y118.242 E13.8983
G1 X114.082 Y117.94 E13.91649
G1 X113.632 Y117.556 E13.93617
G1 X113.227 Y117.106 E13.9563
G1 X112.87 Y116.586 E13.97728
G1 X112.593 Y116.036 E13.99776
G1 X112.4 Y115.485 E14.01718
G1 X112.267 Y114.839 E14.03912
G1 X112.229 Y114.278 E14.05782
G1 X112.194 Y113.595 E14.08057
G1 X112.08 Y112.97 E14.1017
G1 X111.882 Y112.347 E14.12344
G1 X111.583 Y111.719 E14.14657
G1 X111.234 Y111.179 E14.16796
G1 X110.793 Y110.665 E14.19048
G1 X110.291 Y110.218 E14.21284
G1 X109.708 Y109.826 E14.23621
G1 X109.142 Y109.548 E14.25718
G1 X108.509 Y109.332 E14.27943
G1 X107.957 Y109.217 E14.29818
G1 X107.296 Y109.162 E14.32024
G1 X106.653 Y109.192 E14.34165
