;FLAVOR:Marlin
;TIME:11909
;Filament used: 12.7419m
;Layer height: 0.2
;MINX:73.6
;MINY:66.1
;MINZ:0.2
;MAXX:161.4
;MAXY:168.9
;MAXZ:21
;Generated with Cura_SteamEngine 4.1.0
M140 S60
M105
M190 S60
M104 S200
M105
M109 S200
M82 ;absolute extrusion mode
; Ender 3 Custom Start G-code
G28 ; Home all axes
G92 E0 ; Reset Extruder
G1 Z2.0 F3000 ; Move Z Axis up little to prevent scratching of Heat Bed
G1 X0.1 Y20 Z0.3 F5000.0 ; Move to start position
G1 X0.1 Y200.0 Z0.3 F1500.0 E15 ; Draw the first line
G1 X0.4 Y200.0 Z0.3 F5000.0 ; Move to side a little
G1 X0.4 Y20 Z0.3 F1500.0 E30 ; Draw the second line
G92 E0 ; Reset Extruder
G1 Z2.0 F3000 ; Move Z Axis up little to prevent scratching of Heat Bed
; End of custom start GCode
G92 E0
G92 E0
G1 F2400 E-5
;LAYER_COUNT:100
;LAYER:0
M107
M204 S500
M205 X10 Y10
G0 F3600 X75.539 Y82.931 Z0.2
;TYPE:SKIRT
G1 F2400 E0
G1 F1800 X76.077 Y82.461 E0.02376
G1 X76.665 Y82.054 E0.04755
G1 X77.295 Y81.714 E0.07136
G1 X77.959 Y81.448 E0.09515
G1 X78.648 Y81.257 E0.11893
G1 X79.453 Y81.134 E0.14601
G1 X79.782 Y81.105 E0.157
G1 X82.465 Y80.835 E0.24669
G1 X85.056 Y80.501 E0.33358
G1 X87.69 Y80.085 E0.42227
G1 X90.287 Y79.6 E0.51014
G1 X92.878 Y79.038 E0.59832
G1 X95.429 Y78.41 E0.6857
G1 X98.022 Y77.694 E0.77517
G1 X100.524 Y76.925 E0.86223
G1 X103.032 Y76.075 E0.95031
G1 X105.532 Y75.15 E1.03897
G1 X107.959 Y74.172 E1.126
G1 X110.4 Y73.108 E1.21456
G1 X112.8 Y71.979 E1.30278
G1 X115.187 Y70.773 E1.39173
G1 X117.477 Y69.534 E1.47833
G1 X119.809 Y68.185 E1.56793
G1 X121.207 Y67.323 E1.62256
G1 X121.292 Y67.271 E1.62587
G1 X121.727 Y67.012 E1.64271
G1 X122.361 Y66.681 E1.6665
G1 X123.028 Y66.423 E1.69028
G1 X123.72 Y66.241 E1.71408
G1 X124.427 Y66.137 E1.73785
G1 X124.787 Y66.115 E1.74985
G1 X125.116 Y66.104 E1.76079
G1 X125.33 Y66.1 E1.76791
G1 X154.293 Y66.1 E2.73123
G1 X154.385 Y66.101 E2.73429
G1 X155.083 Y66.111 E2.7575
G1 X155.796 Y66.161 E2.78128
G1 X156.5 Y66.29 E2.80508
G1 X157.184 Y66.498 E2.82886
G1 X157.841 Y66.78 E2.85264
G1 X158.463 Y67.134 E2.87644
G1 X159.041 Y67.555 E2.90023
G1 X159.569 Y68.038 E2.92403
G1 X160.039 Y68.576 E2.94779
G1 X160.447 Y69.164 E2.97159
G1 X160.786 Y69.794 E2.99539
G1 X161.053 Y70.457 E3.01916
G1 X161.244 Y71.147 E3.04297
G1 X161.357 Y71.853 E3.06675
G1 X161.388 Y72.33 E3.08265
G1 X161.397 Y72.65 E3.0933
G1 X161.4 Y72.83 E3.09929
G1 X161.4 Y101.793 E4.0626
G1 X161.399 Y101.885 E4.06566
G1 X161.389 Y102.582 E4.08885
G1 X161.34 Y103.287 E4.11235
G1 X161.279 Y103.773 E4.12864
G1 X161.265 Y103.878 E4.13216
G1 X161.022 Y105.588 E4.18961
G1 X160.721 Y108.226 E4.27792
G1 X160.497 Y110.858 E4.36578
G1 X160.346 Y113.529 E4.45476
G1 X160.271 Y116.139 E4.5416
G1 X160.271 Y118.782 E4.62951
G1 X160.346 Y121.455 E4.71845
G1 X160.496 Y124.101 E4.8066
G1 X160.718 Y126.729 E4.89431
G1 X161.018 Y129.369 E4.98269
G1 X161.207 Y130.76 E5.02938
G1 X161.324 Y131.578 E5.05686
G1 X161.384 Y132.262 E5.0797
G1 X161.396 Y132.608 E5.09121
G1 X161.4 Y132.83 E5.0986
G1 X161.4 Y161.843 E6.06357
G1 X161.391 Y162.57 E6.08776
G1 X161.342 Y163.284 E6.11156
G1 X161.214 Y163.988 E6.13536
G1 X161.008 Y164.673 E6.15915
G1 X160.727 Y165.33 E6.18292
G1 X160.374 Y165.953 E6.20673
G1 X159.954 Y166.532 E6.23052
G1 X159.472 Y167.06 E6.2543
G1 X158.935 Y167.532 E6.27808
G1 X158.347 Y167.94 E6.30188
G1 X157.718 Y168.281 E6.32568
G1 X157.055 Y168.549 E6.34947
G1 X156.366 Y168.741 E6.37326
G1 X155.66 Y168.856 E6.39705
G1 X155.17 Y168.888 E6.41338
G1 X154.849 Y168.897 E6.42406
G1 X154.67 Y168.9 E6.43001
G1 X125.707 Y168.9 E7.39333
G1 X125.615 Y168.899 E7.39639
G1 X124.917 Y168.889 E7.41961
G1 X124.204 Y168.839 E7.44338
G1 X123.5 Y168.71 E7.46718
G1 X122.816 Y168.502 E7.49096
G1 X122.159 Y168.22 E7.51474
G1 X121.672 Y167.951 E7.53325
G1 X120.913 Y167.487 E7.56283
G1 X118.558 Y166.084 E7.65401
G1 X116.244 Y164.793 E7.74214
G1 X113.91 Y163.574 E7.82972
G1 X111.526 Y162.414 E7.9179
G1 X109.093 Y161.316 E8.00668
G1 X106.65 Y160.293 E8.09477
G1 X104.204 Y159.353 E8.18193
G1 X101.7 Y158.468 E8.27026
G1 X99.173 Y157.655 E8.35855
G1 X96.625 Y156.915 E8.4468
G1 X94.076 Y156.251 E8.53441
G1 X91.5 Y155.657 E8.62233
G1 X88.885 Y155.134 E8.71103
G1 X86.283 Y154.688 E8.79884
G1 X83.683 Y154.318 E8.88618
G1 X81.036 Y154.017 E8.97479
G1 X80.577 Y153.978 E8.99011
G1 X80.489 Y153.97 E8.99305
G1 X79.387 Y153.861 E9.02988
G1 X78.68 Y153.751 E9.05368
G1 X77.99 Y153.563 E9.07747
G1 X77.326 Y153.299 E9.10123
G1 X76.694 Y152.962 E9.12505
G1 X76.105 Y152.557 E9.14883
G1 X75.564 Y152.089 E9.17262
G1 X75.079 Y151.563 E9.19642
G1 X74.655 Y150.987 E9.22021
G1 X74.299 Y150.367 E9.24399
G1 X74.014 Y149.711 E9.26777
G1 X73.804 Y149.027 E9.29157
G1 X73.671 Y148.324 E9.31537
G1 X73.625 Y147.817 E9.3323
G1 X73.608 Y147.483 E9.34342
G1 X73.6 Y147.158 E9.35424
G1 X73.6 Y88.198 E11.31525
G1 X73.601 Y88.105 E11.31835
G1 X73.611 Y87.417 E11.34123
G1 X73.661 Y86.703 E11.36504
G1 X73.791 Y86 E11.38882
G1 X73.998 Y85.316 E11.41259
G1 X74.28 Y84.658 E11.4364
G1 X74.634 Y84.037 E11.46017
G1 X75.056 Y83.459 E11.48397
G1 X75.539 Y82.931 E11.50778
G0 F3600 X75.93 Y83.111
G1 F1800 X76.464 Y82.67 E11.53081
G1 X77.045 Y82.294 E11.55383
G1 X77.666 Y81.987 E11.57687
G1 X78.318 Y81.754 E11.5999
G1 X78.992 Y81.597 E11.62291
G1 X79.488 Y81.533 E11.63955
G1 X79.779 Y81.508 E11.64926
G1 X82.485 Y81.235 E11.73972
G1 X85.133 Y80.894 E11.82852
G1 X87.76 Y80.479 E11.91698
G1 X90.374 Y79.99 E12.00543
G1 X92.979 Y79.426 E12.09408
G1 X95.534 Y78.797 E12.1816
G1 X98.109 Y78.085 E12.27046
G1 X100.654 Y77.303 E12.35901
G1 X103.163 Y76.454 E12.44711
G1 X105.672 Y75.525 E12.53609
G1 X108.132 Y74.533 E12.62431
G1 X110.565 Y73.473 E12.71258
G1 X113.001 Y72.327 E12.80212
G1 X115.336 Y71.147 E12.88914
G1 X117.688 Y69.875 E12.97807
G1 X119.987 Y68.545 E13.06641
G1 X121.417 Y67.663 E13.12229
G1 X121.496 Y67.615 E13.12537
G1 X121.931 Y67.356 E13.14221
G1 X122.546 Y67.036 E13.16526
G1 X123.193 Y66.79 E13.18829
G1 X123.864 Y66.62 E13.21131
G1 X124.801 Y66.514 E13.24267
G1 X125.13 Y66.503 E13.25362
G1 X125.33 Y66.5 E13.26027
G1 X154.293 Y66.5 E14.22359
G1 X154.379 Y66.501 E14.22645
G1 X155.077 Y66.511 E14.24967
G1 X155.768 Y66.56 E14.27271
G1 X156.448 Y66.69 E14.29573
G1 X157.109 Y66.896 E14.31876
G1 X157.742 Y67.178 E14.34181
G1 X158.338 Y67.53 E14.36483
G1 X158.889 Y67.949 E14.38786
G1 X159.389 Y68.429 E14.41091
G1 X159.83 Y68.963 E14.43394
G1 X160.207 Y69.544 E14.45698
G1 X160.514 Y70.165 E14.48002
G1 X160.747 Y70.817 E14.50305
G1 X160.904 Y71.491 E14.52607
G1 X160.989 Y72.341 E14.55448
G1 X160.998 Y72.661 E14.56513
G1 X161 Y72.83 E14.57075
G1 X161 Y101.793 E15.53406
G1 X160.999 Y101.879 E15.53692
G1 X160.989 Y102.576 E15.5601
G1 X160.943 Y103.237 E15.58214
G1 X160.882 Y103.723 E15.59843
G1 X160.869 Y103.821 E15.60172
G1 X160.622 Y105.553 E15.65991
G1 X160.323 Y108.183 E15.74795
G1 X160.097 Y110.835 E15.83648
G1 X159.948 Y113.46 E15.92392
G1 X159.871 Y116.163 E16.01386
G1 X159.871 Y118.793 E16.10134
G1 X159.946 Y121.488 E16.19101
G1 X160.094 Y124.088 E16.27762
G1 X160.321 Y126.772 E16.36721
G1 X160.622 Y129.424 E16.45598
G1 X160.811 Y130.816 E16.50271
G1 X160.928 Y131.634 E16.53019
G1 X160.984 Y132.276 E16.55163
G1 X160.996 Y132.622 E16.56314
G1 X161 Y132.83 E16.57006
G1 X161 Y161.838 E17.53487
G1 X160.991 Y162.565 E17.55905
G1 X160.942 Y163.256 E17.58209
G1 X160.814 Y163.937 E17.60514
G1 X160.609 Y164.598 E17.62816
G1 X160.329 Y165.231 E17.65118
G1 X159.977 Y165.828 E17.67423
G1 X159.56 Y166.381 E17.69726
G1 X159.081 Y166.881 E17.72029
G1 X158.548 Y167.323 E17.74332
G1 X157.967 Y167.701 E17.76638
G1 X157.347 Y168.009 E17.7894
G1 X156.696 Y168.244 E17.81242
G1 X156.021 Y168.402 E17.83548
G1 X155.159 Y168.489 E17.8643
G1 X154.838 Y168.498 E17.87498
G1 X154.67 Y168.5 E17.88057
G1 X125.707 Y168.5 E18.84388
G1 X125.621 Y168.499 E18.84674
G1 X124.923 Y168.489 E18.86996
G1 X124.232 Y168.44 E18.893
G1 X123.552 Y168.31 E18.91603
G1 X122.891 Y168.104 E18.93905
G1 X122.258 Y167.822 E18.9621
G1 X121.881 Y167.61 E18.97649
G1 X121.061 Y167.109 E19.00845
G1 X118.778 Y165.749 E19.09683
G1 X116.445 Y164.447 E19.18569
G1 X114.091 Y163.218 E19.27402
G1 X111.659 Y162.035 E19.36397
G1 X109.276 Y160.959 E19.45093
G1 X106.811 Y159.927 E19.53981
G1 X104.3 Y158.961 E19.6293
G1 X101.85 Y158.096 E19.71571
G1 X99.301 Y157.276 E19.80477
G1 X96.732 Y156.53 E19.89375
G1 X94.186 Y155.867 E19.98125
G1 X91.531 Y155.255 E20.07187
G1 X89.001 Y154.748 E20.15769
G1 X86.335 Y154.292 E20.24765
G1 X83.712 Y153.919 E20.33577
G1 X81.079 Y153.619 E20.42391
G1 X80.611 Y153.579 E20.43954
G1 X80.528 Y153.572 E20.44231
G1 X79.426 Y153.463 E20.47914
G1 X78.742 Y153.355 E20.50217
G1 X78.075 Y153.169 E20.5252
G1 X77.434 Y152.908 E20.54822
G1 X76.827 Y152.574 E20.57126
G1 X76.263 Y152.172 E20.5943
G1 X75.749 Y151.709 E20.61731
G1 X75.291 Y151.189 E20.64036
G1 X74.897 Y150.62 E20.66337
G1 X74.57 Y150.009 E20.68642
G1 X74.317 Y149.364 E20.70947
G1 X74.139 Y148.695 E20.73249
G1 X74.025 Y147.797 E20.7626
G1 X74.008 Y147.463 E20.77372
G1 X74 Y147.158 E20.78387
G1 X74 Y88.198 E22.74489
G1 X74.001 Y88.111 E22.74778
G1 X74.011 Y87.423 E22.77067
G1 X74.061 Y86.732 E22.79371
G1 X74.19 Y86.052 E22.81673
G1 X74.397 Y85.391 E22.83977
G1 X74.678 Y84.758 E22.8628
G1 X75.031 Y84.162 E22.88584
G1 X75.45 Y83.611 E22.90887
G1 X75.93 Y83.111 E22.93192
G0 F3600 X76.32 Y83.298
G1 F1800 X76.848 Y82.888 E22.95415
G1 X77.422 Y82.544 E22.97641
G1 X78.033 Y82.271 E22.99867
G1 X78.672 Y82.072 E23.02093
G1 X79.523 Y81.931 E23.04962
G1 X79.852 Y81.902 E23.0606
G1 X82.539 Y81.632 E23.15042
G1 X85.175 Y81.292 E23.23882
G1 X87.824 Y80.874 E23.32802
G1 X90.467 Y80.379 E23.41746
G1 X93.054 Y79.819 E23.50549
G1 X95.623 Y79.187 E23.59349
G1 X98.228 Y78.467 E23.68338
G1 X100.795 Y77.678 E23.7727
G1 X103.293 Y76.832 E23.86042
G1 X105.824 Y75.895 E23.95018
G1 X108.293 Y74.9 E24.03872
G1 X110.716 Y73.844 E24.12663
G1 X113.172 Y72.688 E24.21691
G1 X115.528 Y71.499 E24.30469
G1 X117.872 Y70.23 E24.39334
G1 X120.192 Y68.888 E24.48248
G1 X121.627 Y68.003 E24.53856
G1 X121.701 Y67.958 E24.54144
G1 X122.136 Y67.699 E24.55828
G1 X122.73 Y67.392 E24.58052
G1 X123.357 Y67.158 E24.60278
G1 X124.007 Y67 E24.62502
G1 X124.814 Y66.914 E24.65202
G1 X125.143 Y66.903 E24.66297
G1 X125.33 Y66.9 E24.66919
G1 X154.293 Y66.9 E25.6325
G1 X154.373 Y66.901 E25.63516
G1 X155.071 Y66.911 E25.65838
G1 X155.738 Y66.96 E25.68062
G1 X156.395 Y67.089 E25.70289
G1 X157.031 Y67.295 E25.72513
G1 X157.639 Y67.576 E25.74741
G1 X158.208 Y67.926 E25.76962
G1 X158.732 Y68.343 E25.7919
G1 X159.202 Y68.819 E25.81415
G1 X159.612 Y69.347 E25.83638
G1 X159.957 Y69.921 E25.85865
G1 X160.23 Y70.532 E25.88091
G1 X160.428 Y71.171 E25.90316
G1 X160.549 Y71.829 E25.92542
G1 X160.589 Y72.353 E25.94289
G1 X160.598 Y72.673 E25.95354
G1 X160.6 Y72.83 E25.95876
G1 X160.6 Y101.793 E26.92208
G1 X160.599 Y101.873 E26.92474
G1 X160.589 Y102.57 E26.94792
G1 X160.546 Y103.187 E26.96849
G1 X160.485 Y103.673 E26.98479
G1 X160.473 Y103.765 E26.98787
G1 X160.228 Y105.488 E27.04576
G1 X159.926 Y108.14 E27.13453
G1 X159.698 Y110.814 E27.22379
G1 X159.548 Y113.462 E27.31201
G1 X159.471 Y116.151 E27.40148
G1 X159.471 Y118.805 E27.48975
G1 X159.546 Y121.487 E27.57899
G1 X159.697 Y124.144 E27.6675
G1 X159.923 Y126.815 E27.75666
G1 X160.225 Y129.479 E27.84583
G1 X160.414 Y130.873 E27.89262
G1 X160.415 Y130.873 E27.89265
G1 X160.532 Y131.691 E27.92014
G1 X160.585 Y132.29 E27.94014
G1 X160.597 Y132.636 E27.95165
G1 X160.6 Y132.83 E27.95811
G1 X160.6 Y161.833 E28.92275
G1 X160.591 Y162.56 E28.94693
G1 X160.542 Y163.228 E28.96921
G1 X160.415 Y163.884 E28.99143
G1 X160.21 Y164.521 E29.01369
G1 X159.931 Y165.129 E29.03594
G1 X159.581 Y165.699 E29.05819
G1 X159.165 Y166.224 E29.08047
G1 X158.69 Y166.695 E29.10271
G1 X158.163 Y167.106 E29.12494
G1 X157.59 Y167.452 E29.14721
G1 X156.98 Y167.726 E29.16945
G1 X156.341 Y167.926 E29.19172
G1 X155.683 Y168.048 E29.21398
G1 X155.148 Y168.089 E29.23182
G1 X154.827 Y168.098 E29.2425
G1 X154.67 Y168.1 E29.24772
G1 X125.707 Y168.1 E30.21104
G1 X125.627 Y168.099 E30.2137
G1 X124.929 Y168.089 E30.23692
G1 X124.262 Y168.04 E30.25916
G1 X123.605 Y167.911 E30.28143
G1 X122.969 Y167.705 E30.30367
G1 X122.089 Y167.269 E30.33633
G1 X121.297 Y166.785 E30.3672
G1 X118.945 Y165.383 E30.45827
G1 X116.631 Y164.092 E30.5464
G1 X114.272 Y162.861 E30.63491
G1 X111.849 Y161.682 E30.72453
G1 X109.417 Y160.584 E30.81328
G1 X106.943 Y159.548 E30.90249
G1 X104.473 Y158.598 E30.99051
G1 X101.958 Y157.71 E31.07922
G1 X99.431 Y156.897 E31.16751
G1 X96.839 Y156.145 E31.25727
G1 X94.271 Y155.476 E31.34554
G1 X91.634 Y154.868 E31.43555
G1 X89.069 Y154.354 E31.52255
G1 X86.389 Y153.895 E31.61299
G1 X83.778 Y153.524 E31.7007
G1 X81.125 Y153.222 E31.78951
G1 X80.645 Y153.181 E31.80554
G1 X80.568 Y153.174 E31.80811
G1 X79.466 Y153.065 E31.84494
G1 X78.805 Y152.959 E31.8672
G1 X78.162 Y152.776 E31.88944
G1 X77.545 Y152.517 E31.9117
G1 X76.963 Y152.186 E31.93397
G1 X76.425 Y151.788 E31.95622
G1 X75.939 Y151.329 E31.97846
G1 X75.51 Y150.816 E32.0007
G1 X75.146 Y150.254 E32.02297
G1 X74.851 Y149.654 E32.04521
G1 X74.63 Y149.022 E32.06748
G1 X74.486 Y148.369 E32.08972
G1 X74.424 Y147.777 E32.10951
G1 X74.407 Y147.443 E32.12064
G1 X74.4 Y147.158 E32.13012
G1 X74.4 Y88.198 E34.09114
G1 X74.401 Y88.117 E34.09383
G1 X74.411 Y87.429 E34.11672
G1 X74.46 Y86.761 E34.13899
G1 X74.589 Y86.105 E34.16123
G1 X74.795 Y85.468 E34.1835
G1 X75.076 Y84.861 E34.20575
G1 X75.427 Y84.292 E34.22798
G1 X75.844 Y83.768 E34.25025
G1 X76.32 Y83.298 E34.2725
G0 F3600 X76.237 Y83.932
G1 F1800 X76.709 Y83.493 E34.29394
G1 X77.231 Y83.115 E34.31538
G1 X77.796 Y82.805 E34.33681
G1 X78.395 Y82.567 E34.35825
G1 X79.019 Y82.405 E34.37969
G1 X79.558 Y82.33 E34.39779
G1 X79.85 Y82.305 E34.40754
G1 X82.594 Y82.029 E34.49927
G1 X85.257 Y81.685 E34.58858
G1 X87.889 Y81.269 E34.6772
G1 X90.52 Y80.777 E34.76623
G1 X93.163 Y80.205 E34.85617
G1 X95.72 Y79.575 E34.94376
G1 X98.347 Y78.849 E35.03441
G1 X100.893 Y78.067 E35.12299
G1 X103.423 Y77.21 E35.21184
G1 X105.964 Y76.27 E35.30195
G1 X108.436 Y75.274 E35.39059
G1 X110.896 Y74.201 E35.47986
G1 X113.344 Y73.05 E35.56983
G1 X115.706 Y71.856 E35.65785
G1 X118.084 Y70.57 E35.74777
G1 X120.407 Y69.226 E35.83703
G1 X121.837 Y68.344 E35.89292
G1 X121.906 Y68.302 E35.8956
G1 X122.341 Y68.043 E35.91244
G1 X122.914 Y67.748 E35.93388
G1 X123.519 Y67.527 E35.9553
G1 X124.148 Y67.382 E35.97677
G1 X124.827 Y67.314 E35.99946
G1 X125.156 Y67.303 E36.01041
G1 X125.33 Y67.3 E36.0162
G1 X154.293 Y67.3 E36.97952
G1 X154.367 Y67.301 E36.98198
G1 X155.065 Y67.311 E37.00519
G1 X155.708 Y67.36 E37.02664
G1 X156.34 Y67.488 E37.04809
G1 X156.951 Y67.694 E37.06954
G1 X157.532 Y67.973 E37.09097
G1 X158.074 Y68.322 E37.11241
G1 X158.568 Y68.736 E37.13385
G1 X159.008 Y69.208 E37.15531
G1 X159.386 Y69.73 E37.17675
G1 X159.696 Y70.295 E37.19818
G1 X159.934 Y70.894 E37.21962
G1 X160.096 Y71.518 E37.24106
G1 X160.189 Y72.364 E37.26937
G1 X160.198 Y72.684 E37.28002
G1 X160.2 Y72.83 E37.28488
G1 X160.2 Y101.793 E38.24819
G1 X160.199 Y101.868 E38.25068
G1 X160.189 Y102.565 E38.27387
G1 X160.15 Y103.138 E38.29297
G1 X160.089 Y103.624 E38.30926
G1 X160.077 Y103.709 E38.31212
G1 X159.832 Y105.427 E38.36984
G1 X159.525 Y108.128 E38.46025
G1 X159.301 Y110.758 E38.54804
G1 X159.148 Y113.462 E38.63812
G1 X159.071 Y116.14 E38.72723
G1 X159.071 Y118.816 E38.81623
G1 X159.146 Y121.487 E38.9051
G1 X159.299 Y124.2 E38.99548
G1 X159.522 Y126.823 E39.08304
G1 X159.829 Y129.528 E39.17358
G1 X160.019 Y130.93 E39.22064
G1 X160.136 Y131.748 E39.24813
G1 X160.185 Y132.304 E39.26669
G1 X160.197 Y132.65 E39.2782
G1 X160.2 Y132.83 E39.28419
G1 X160.2 Y161.828 E40.24867
G1 X160.191 Y162.555 E40.27285
G1 X160.143 Y163.198 E40.2943
G1 X160.016 Y163.83 E40.31574
G1 X159.811 Y164.442 E40.3372
G1 X159.533 Y165.023 E40.35863
G1 X159.185 Y165.566 E40.38008
G1 X158.772 Y166.061 E40.40152
G1 X158.301 Y166.501 E40.42296
G1 X157.779 Y166.88 E40.44441
G1 X157.215 Y167.191 E40.46583
G1 X156.616 Y167.43 E40.48728
G1 X155.993 Y167.594 E40.50871
G1 X155.137 Y167.689 E40.53736
G1 X154.816 Y167.698 E40.54804
G1 X154.67 Y167.7 E40.55289
G1 X125.707 Y167.7 E41.51621
